X:5008
T:Enrico
T:Jacob
R:March
C:Trad.
N:Thomas Hardy favourite
O:England
Z:Paul Hardy's Session Tunebook 2015 (see www.paulhardy.net). Creative Commons cc by-nc-sa licenced.
M:4/4
L:1/4
Q:1/4=140
K:D
A|"D"df/2e/2 d/2c/2d/2B/2|A/2B/2A/2G/2 FA|de/2f/2 "Em"g/2f/2g/2f/2|"A7"ea a/2g/2f/2e/2|
"D"df/2e/2 d/2c/2d/2B/2|A/2B/2A/2G/2 FA|"G"Bg/2f/2 "A7"e/2d/2e/2c/2|"D"dd d:|
|:A|"F#m"aa/2g/2 f/2g/2f/2e/2|"Bm"d/2e/2d/2c/2 BB|"Em"g/2a/2g/2f/2 e/2f/2e/2d/2|"A"c/2d/2c/2B/2 "A7"A2|
"D"dd "A"c/2e/2c/2A/2|"D"dd "A"c/2e/2c/2A/2|"D"df "A7"e/2d/2e/2c/2|"D"dd d:|

